src/pos-icons/playlist-check.svg

<svg height="24" viewBox="0 0 24 24" width="24" xmlns="http://www.w3.org/2000/svg"><path d="m14 10h-12v2h12zm0-4h-12v2h12zm-12 10h8v-2h-8zm19.5-4.5 1.5 1.5-7 7-4.5-4.5 1.5-1.5 3 3z"/></svg>

<?xml version="1.0" encoding="UTF-8"?><!DOCTYPE svg PUBLIC "-//W3C//DTD SVG 1.1//EN" "http://www.w3.org/Graphics/SVG/1.1/DTD/svg11.dtd"><svg xmlns="http://www.w3.org/2000/svg" xmlns:xlink="http://www.w3.org/1999/xlink" version="1.1" id="mdi-playlist-check" width="24" height="24" viewBox="0 0 24 24"><path d="M14,10H2V12H14V10M14,6H2V8H14V6M2,16H10V14H2V16M21.5,11.5L23,13L16,20L11.5,15.5L13,14L16,17L21.5,11.5Z" /></svg>
